X:1
T:Title
%%score [ 1 2 3 ]
L:1/8
Q:1/4=108
M:none
K:C
V:1 treble nm="Soprano" snm="S"
V:2 treble nm="Alto" snm="A"
V:3 treble-8 nm="Tenor" snm="T"
V:1
"^Lapidabant Stephanum""^Giovanni Maria Nanini\n (1544-1607)""^Acts 7: 58-59" z16 | z8 E8 | %2
w: |La-|
 F4 (D6 E2 F2 G2 | A2 B2 c6 B2 A4) | G8 z4 E4 | F4 (D6 E2 F2 G2 | A2 B2 c6 B2 A4) | %7
w: pi- da\- * * *||bant, la-|pi- da\- * * *||
[M:4/2] G8 z4 (G4- | G4 F2 E2 F4) A4 | G16 | z4 G4 B4 (d4- | d4 c2 B2 A2 B2 ^c2 d2 | e8) e4 e4 | %13
w: bant Ste\-|* * * * pha-|num|in- vo- can\-||* tem et|
 d4 (B6 c2 d4) | D16 | z4 F6 E2 ^F4 | G12 G4 | (A12 B4 | c16) | B16 | z4 D6 D2 D4 | F6 F2 F4 A4- | %22
w: di- cen\- * *|tem:|Do- mi- ne|Je- su|Chri\- *||ste,|ac- ci- pe|spi- ri- tum me\-|
 (A4 G2 F2 G8) | A16 | z16 | E8 E4 e4- | e4 d4 d4 (G4- | G4 F2 E2) F8 | z4 E4 E4 e4- | e4 d4 d8- | %30
w: |um,||et ne sta\-|* tu- as il\-|* * * lis,|et ne sta\-|* tu- as|
 (d4 c2 B2 A8) | (B12 A2 G2 | A12) A4 | (c4 B2 A2 G6 A2 | B2 c2 d8) D4- | D4 (^C2 B,2 C8) | D16 |] %37
w: |il\- * *|* lis|hoc * * * *|* * * pec\-|* ca\- * *|tum.|
V:2
 z8 A,8 | B,4 (G,6 A,2 B,2 C2 | D2 E2 F6 E2 D4) | C8 z4 A,4 | B,4 (G,6 A,2 B,2 C2 | %5
w: La-|pi- da\- * * *||bant, la-|pi- da\- * * *|
 D2 E2 F6 E2 D4) | C8 z4 C4- |[M:4/2] (C4 B,2 A,2 B,4) D4 | C16 | z4 C4 E4 (G4- | %10
w: |bant Ste\-|* * * * pha-|num|in- vo- can\-|
 G4 F2 E2 D2 E2 ^F2 G2 | A8) A4 A4 | G4 (E6 F2 G4) | G,16 | z4 B,6 A,2 B,4 | C12 C4 | (D12 E4 | %17
w: |* tem et|di- cen\- * *|tem:|Do- mi- ne|Je- su|Chri\- *|
 F16) | E16 | z4 G,6 G,2 G,4 | B,6 B,2 B,4 (D4- | D4 C2 B,2 C8) | D16 | z16 | A,8 A,4 A4- | %25
w: |ste,|ac- ci- pe|spi- ri- tum me\-||um,||et ne sta\-|
 A4 G4 G4 (C4- | C4 B,2 A,2) B,8 | z4 A,4 A,4 A4- | A4 G4 (G8- | G4 F2 E2 D8) | (E12 D2 C2 | %31
w: * tu- as il\-|* * * lis,|et ne sta\-|* tu- as||il\- * *|
 D12) D4 | (F4 E2 D2 C6 D2 | E2 F2 G8) (G,4- | G,4 ^F,2 E,2 F,8) | G,16 | A,16 |] %37
w: * lis|hoc * * * *|* * * pec\-||ca-|tum.|
V:3
 A16 | E16 | D16 | F16 | E12 E4 | D16 | F16 |[M:4/2][K:treble-8] G16 | A16 | c16 | B16 | A16 | %12
w: La-|pi-|da-|bant|Ste- pha-|num|in-|vo-|can-|tem|et|di-|
 c16 | d16 | G12 G4 | A16 | G8 G8 | d16 | c16 | d12 d4 | G16 | F12 F4 | _B16 | A16 | D16 | E16 | %26
w: cen-|tem:|Do- mi-|ne|Je- su|Chri-|ste,|ac- ci-|pe|spi- ri-|tus|me-|um,|et|
 G16 | (A16 | c12) c4 | B16 | A16 | G16 | F16 | E16 | (D16 | E16) | D16 |] %37
w: ne|sta\-|* tu-|as|il-|lis|hoc|pec-|ca\-||tum.|

